X:1
T: Miss Jessie Stewart's Reel
C:
R:Reel
Q: 232
K:Dm
M:4/4
L:1/8
|:DE FD F2 Fc|GF ED CD EC|DE FD F2 Fc|d1/2c1/2=B1/2A1/2 cE D1/2D1/2D D2|
DE FD F2 Fc|GF ED CD EC|DE FD F2 Fc|d1/2c1/2=B1/2A1/2 cE D1/2D1/2D D2|
de dA d1/2d1/2d f2|gf ed cd ec|de dA d1/2d1/2d f2|ed ^ce d1/2d1/2d d2|
de dA d1/2d1/2d f2|gf ed cd ec|de cd Ac GA|GE cE D1/2D1/2D D2:|
